%
(Header)
(Generated by gcodetools from Inkscape.)
(Using default header. To add your own header create file "header" in the output dir.)
M3
(Header end.)
G21 (All units in mm)
M05

(Start cutting path id: path4114)
(Change tool to Laser cutter)
 
G00 Z5.000000
G00 X45.864191 Y20.720273
M03 S1000 (Turn laser on)
G01 Z-1.000000 F100.0(Penetrate)
G01 X42.033792 Y20.720273 Z-1.000000 F400.000000
G00 Z5.000000
M05 (turn off laser)
(End cutting path id: path4114)


(Start cutting path id: path4112)
(Change tool to Laser cutter)
 
G00 Z5.000000
G00 X45.864191 Y26.755832
M03 S1000 (Turn laser on)
G01 Z-1.000000 F100.0(Penetrate)
G01 X42.660086 Y26.755832 Z-1.000000 F400.000000
G00 Z5.000000
M05 (turn off laser)
(End cutting path id: path4112)


(Start cutting path id: path4110)
(Change tool to Laser cutter)
 
G00 Z5.000000
G00 X45.864191 Y20.720273
M03 S1000 (Turn laser on)
G01 Z-1.000000 F100.0(Penetrate)
G03 X47.373081 Y21.124579 Z-1.000000 I0.000000 J3.017780 F400.000000
G03 X48.477665 Y22.229163 Z-1.000000 I-1.508890 J2.613474
G03 X48.881971 Y23.738053 Z-1.000000 I-2.613474 J1.508890
G03 X48.477665 Y25.246943 Z-1.000000 I-3.017780 J0.000000
G03 X47.373081 Y26.351527 Z-1.000000 I-2.613474 J-1.508890
G03 X45.864191 Y26.755832 Z-1.000000 I-1.508890 J-2.613474
G00 Z5.000000
M05 (turn off laser)
(End cutting path id: path4110)


(Start cutting path id: path4108)
(Change tool to Laser cutter)
 
G00 Z5.000000
G00 X19.864190 Y20.653076
M03 S1000 (Turn laser on)
G01 Z-1.000000 F100.0(Penetrate)
G01 X23.648387 Y20.653076 Z-1.000000 F400.000000
G00 Z5.000000
M05 (turn off laser)
(End cutting path id: path4108)


(Start cutting path id: path4106)
(Change tool to Laser cutter)
 
G00 Z5.000000
G00 X19.864190 Y26.853603
M03 S1000 (Turn laser on)
G01 Z-1.000000 F100.0(Penetrate)
G01 X23.045831 Y26.853603 Z-1.000000 F400.000000
G00 Z5.000000
M05 (turn off laser)
(End cutting path id: path4106)


(Start cutting path id: path4104)
(Change tool to Laser cutter)
 
G00 Z5.000000
G00 X19.864190 Y26.853603
M03 S1000 (Turn laser on)
G01 Z-1.000000 F100.0(Penetrate)
G03 X18.314058 Y26.438246 Z-1.000000 I-0.000000 J-3.100263 F400.000000
G03 X17.179283 Y25.303471 Z-1.000000 I1.550132 J-2.684907
G03 X16.763927 Y23.753339 Z-1.000000 I2.684907 J-1.550132
G03 X17.179283 Y22.203208 Z-1.000000 I3.100263 J0.000000
G03 X18.314058 Y21.068432 Z-1.000000 I2.684907 J1.550132
G03 X19.864190 Y20.653076 Z-1.000000 I1.550132 J2.684907
G00 Z5.000000
M05 (turn off laser)
(End cutting path id: path4104)


(Start cutting path id: path4102)
(Change tool to Laser cutter)
 
G00 Z5.000000
G00 X42.864189 Y28.722763
M03 S1000 (Turn laser on)
G01 Z-1.000000 F100.0(Penetrate)
G01 X22.864190 Y28.722763 Z-1.000000 F400.000000
G01 X23.831398 Y18.769835 Z-1.000000
G01 X41.831397 Y18.769835 Z-1.000000
G01 X42.864189 Y28.722763 Z-1.000000
G01 X42.864189 Y28.722763 Z-1.000000
G00 Z5.000000
M05 (turn off laser)
(End cutting path id: path4102)


(Start cutting path id: path4100)
(Change tool to Laser cutter)
 
G00 Z5.000000
G00 X73.529665 Y13.253350
M03 S1000 (Turn laser on)
G01 Z-1.000000 F100.0(Penetrate)
G03 X73.315306 Y14.053351 Z-1.000000 I-1.600001 J-0.000000 F400.000000
G03 X72.729665 Y14.638992 Z-1.000000 I-1.385642 J-0.800001
G03 X71.929664 Y14.853351 Z-1.000000 I-0.800001 J-1.385642
G03 X71.129664 Y14.638992 Z-1.000000 I0.000000 J-1.600001
G03 X70.544023 Y14.053351 Z-1.000000 I0.800001 J-1.385642
G03 X70.329663 Y13.253350 Z-1.000000 I1.385642 J-0.800001
G03 X70.544023 Y12.453350 Z-1.000000 I1.600001 J-0.000000
G03 X71.129664 Y11.867709 Z-1.000000 I1.385642 J0.800001
G03 X71.929664 Y11.653349 Z-1.000000 I0.800001 J1.385642
G03 X72.729665 Y11.867709 Z-1.000000 I0.000000 J1.600001
G03 X73.315306 Y12.453350 Z-1.000000 I-0.800001 J1.385642
G03 X73.529665 Y13.253350 Z-1.000000 I-1.385642 J0.800001
G01 X73.529665 Y13.253350 Z-1.000000
G00 Z5.000000
M05 (turn off laser)
(End cutting path id: path4100)


(Start cutting path id: path4098)
(Change tool to Laser cutter)
 
G00 Z5.000000
G00 X73.529665 Y49.253343
M03 S1000 (Turn laser on)
G01 Z-1.000000 F100.0(Penetrate)
G03 X73.315306 Y50.053344 Z-1.000000 I-1.600001 J-0.000000 F400.000000
G03 X72.729665 Y50.638985 Z-1.000000 I-1.385642 J-0.800001
G03 X71.929664 Y50.853344 Z-1.000000 I-0.800001 J-1.385642
G03 X71.129664 Y50.638985 Z-1.000000 I0.000000 J-1.600001
G03 X70.544023 Y50.053344 Z-1.000000 I0.800001 J-1.385642
G03 X70.329663 Y49.253343 Z-1.000000 I1.385642 J-0.800001
G03 X70.544023 Y48.453343 Z-1.000000 I1.600001 J0.000000
G03 X71.129664 Y47.867702 Z-1.000000 I1.385642 J0.800001
G03 X71.929664 Y47.653342 Z-1.000000 I0.800001 J1.385642
G03 X72.729665 Y47.867702 Z-1.000000 I-0.000000 J1.600001
G03 X73.315306 Y48.453343 Z-1.000000 I-0.800001 J1.385642
G03 X73.529665 Y49.253343 Z-1.000000 I-1.385642 J0.800001
G01 X73.529665 Y49.253343 Z-1.000000
G00 Z5.000000
M05 (turn off laser)
(End cutting path id: path4098)


(Start cutting path id: path4096)
(Change tool to Laser cutter)
 
G00 Z5.000000
G00 X15.464190 Y49.253343
M03 S1000 (Turn laser on)
G01 Z-1.000000 F100.0(Penetrate)
G03 X15.249831 Y50.053343 Z-1.000000 I-1.600000 J0.000000 F400.000000
G03 X14.664190 Y50.638984 Z-1.000000 I-1.385641 J-0.800000
G03 X13.864190 Y50.853343 Z-1.000000 I-0.800000 J-1.385641
G03 X13.064190 Y50.638984 Z-1.000000 I0.000000 J-1.600000
G03 X12.478549 Y50.053343 Z-1.000000 I0.800000 J-1.385641
G03 X12.264190 Y49.253343 Z-1.000000 I1.385641 J-0.800000
G03 X12.478549 Y48.453343 Z-1.000000 I1.600000 J-0.000000
G03 X13.064190 Y47.867703 Z-1.000000 I1.385641 J0.800000
G03 X13.864190 Y47.653343 Z-1.000000 I0.800000 J1.385641
G03 X14.664190 Y47.867703 Z-1.000000 I-0.000000 J1.600000
G03 X15.249831 Y48.453343 Z-1.000000 I-0.800000 J1.385641
G03 X15.464190 Y49.253343 Z-1.000000 I-1.385641 J0.800000
G01 X15.464190 Y49.253343 Z-1.000000
G00 Z5.000000
M05 (turn off laser)
(End cutting path id: path4096)


(Start cutting path id: path4094)
(Change tool to Laser cutter)
 
G00 Z5.000000
G00 X15.464190 Y13.253350
M03 S1000 (Turn laser on)
G01 Z-1.000000 F100.0(Penetrate)
G03 X15.249831 Y14.053350 Z-1.000000 I-1.600000 J-0.000000 F400.000000
G03 X14.664190 Y14.638991 Z-1.000000 I-1.385641 J-0.800000
G03 X13.864190 Y14.853350 Z-1.000000 I-0.800000 J-1.385641
G03 X13.064190 Y14.638991 Z-1.000000 I-0.000000 J-1.600000
G03 X12.478549 Y14.053350 Z-1.000000 I0.800000 J-1.385641
G03 X12.264190 Y13.253350 Z-1.000000 I1.385641 J-0.800000
G03 X12.478549 Y12.453350 Z-1.000000 I1.600000 J0.000000
G03 X13.064190 Y11.867710 Z-1.000000 I1.385641 J0.800000
G03 X13.864190 Y11.653350 Z-1.000000 I0.800000 J1.385641
G03 X14.664190 Y11.867710 Z-1.000000 I-0.000000 J1.600000
G03 X15.249831 Y12.453350 Z-1.000000 I-0.800000 J1.385641
G03 X15.464190 Y13.253350 Z-1.000000 I-1.385641 J0.800000
G01 X15.464190 Y13.253350 Z-1.000000
G00 Z5.000000
M05 (turn off laser)
(End cutting path id: path4094)


(Start cutting path id: path4092)
(Change tool to Laser cutter)
 
G00 Z5.000000
G00 X66.864189 Y17.753356
M03 S1000 (Turn laser on)
G01 Z-1.000000 F100.0(Penetrate)
G01 X53.864189 Y17.753356 Z-1.000000 F400.000000
G01 X53.864189 Y28.753342 Z-1.000000
G01 X66.864189 Y28.753342 Z-1.000000
G01 X66.864189 Y17.753356 Z-1.000000
G01 X66.864189 Y17.753356 Z-1.000000
G00 Z5.000000
M05 (turn off laser)
(End cutting path id: path4092)


(Start cutting path id: path4090)
(Change tool to Laser cutter)
 
G00 Z5.000000
G00 X73.864189 Y9.753343
M03 S1000 (Turn laser on)
G01 Z-1.000000 F100.0(Penetrate)
G01 X11.864190 Y9.753343 Z-1.000000 F400.000000
G02 X10.449978 Y10.339128 Z-1.000000 I-0.000000 J2.000000
G02 X9.864190 Y11.753339 Z-1.000000 I1.414212 J1.414215
G01 X9.864190 Y50.753343 Z-1.000000
G02 X10.449977 Y52.167556 Z-1.000000 I2.000000 J-0.000001
G02 X11.864190 Y52.753342 Z-1.000000 I1.414213 J-1.414214
G01 X73.864189 Y52.753342 Z-1.000000
G02 X74.629556 Y52.601101 Z-1.000000 I0.000002 J-2.000000
G02 X75.278403 Y52.167556 Z-1.000000 I-0.765365 J-1.847760
G02 X75.711949 Y51.518710 Z-1.000000 I-1.414213 J-1.414215
G02 X75.864190 Y50.753343 Z-1.000000 I-1.847759 J-0.765368
G01 X75.864190 Y11.753339 Z-1.000000
G02 X75.278402 Y10.339128 Z-1.000000 I-2.000000 J0.000004
G02 X73.864189 Y9.753343 Z-1.000000 I-1.414212 J1.414216
G01 X73.864189 Y9.753343 Z-1.000000
G00 Z5.000000
M05 (turn off laser)
(End cutting path id: path4090)


(Footer)
M5
G00 X0.0000 Y0.0000
M2
(Using default footer. To add your own footer create file "footer" in the output dir.)
(end)
%