%
(Header)
(Generated by gcodetools from Inkscape.)
(Using default header. To add your own header create file "header" in the output dir.)
M3
(Header end.)
G21 (All units in mm)
M05

(Start cutting path id: path3782)
(Change tool to Laser cutter)
 
G00 Z5.000000
G00 X27.587723 Y41.982456
M03 S1000 (Turn laser on)
G01 Z-1.000000 F100.0(Penetrate)
G03 X27.386978 Y42.732731 Z-1.000000 I-1.500000 J0.000651 F400.000000
G03 X26.837911 Y43.282036 Z-1.000000 I-1.299255 J-0.749624
G03 X26.087723 Y43.483107 Z-1.000000 I-0.750188 J-1.298930
G03 X25.337535 Y43.282036 Z-1.000000 I-0.000000 J-1.500000
G03 X24.788468 Y42.732731 Z-1.000000 I0.750188 J-1.298930
G03 X24.587723 Y41.982456 Z-1.000000 I1.299255 J-0.749624
G03 X24.788468 Y41.232181 Z-1.000000 I1.500000 J-0.000651
G03 X25.337535 Y40.682876 Z-1.000000 I1.299255 J0.749624
G03 X26.087723 Y40.481805 Z-1.000000 I0.750188 J1.298930
G03 X26.837911 Y40.682876 Z-1.000000 I0.000000 J1.500000
G03 X27.386978 Y41.232181 Z-1.000000 I-0.750188 J1.298930
G03 X27.587723 Y41.982456 Z-1.000000 I-1.299255 J0.749624
G01 X27.587723 Y41.982456 Z-1.000000
G00 Z5.000000
M05 (turn off laser)
(End cutting path id: path3782)


(Start cutting path id: path3780)
(Change tool to Laser cutter)
 
G00 Z5.000000
G00 X67.337722 Y41.982456
M03 S1000 (Turn laser on)
G01 Z-1.000000 F100.0(Penetrate)
G03 X66.768330 Y44.107456 Z-1.000000 I-4.250000 J0.000000 F400.000000
G03 X65.212722 Y45.663064 Z-1.000000 I-3.680608 J-2.125000
G03 X63.087722 Y46.232456 Z-1.000000 I-2.125000 J-3.680608
G03 X60.962723 Y45.663064 Z-1.000000 I0.000000 J-4.250000
G03 X59.407115 Y44.107456 Z-1.000000 I2.125000 J-3.680608
G03 X58.837723 Y41.982456 Z-1.000000 I3.680608 J-2.125000
G03 X59.407115 Y39.857456 Z-1.000000 I4.250000 J0.000000
G03 X60.962723 Y38.301848 Z-1.000000 I3.680608 J2.125000
G03 X63.087722 Y37.732456 Z-1.000000 I2.125000 J3.680608
G03 X65.212722 Y38.301848 Z-1.000000 I-0.000000 J4.250000
G03 X66.768330 Y39.857456 Z-1.000000 I-2.125000 J3.680608
G03 X67.337722 Y41.982456 Z-1.000000 I-3.680608 J2.125000
G01 X67.337722 Y41.982456 Z-1.000000
G00 Z5.000000
M05 (turn off laser)
(End cutting path id: path3780)


(Start cutting path id: path3778)
(Change tool to Laser cutter)
 
G00 Z5.000000
G00 X47.337723 Y41.982456
M03 S1000 (Turn laser on)
G01 Z-1.000000 F100.0(Penetrate)
G03 X46.768331 Y44.107456 Z-1.000000 I-4.250000 J0.000000 F400.000000
G03 X45.212723 Y45.663064 Z-1.000000 I-3.680608 J-2.125000
G03 X43.087723 Y46.232456 Z-1.000000 I-2.125000 J-3.680608
G03 X40.962723 Y45.663064 Z-1.000000 I-0.000000 J-4.250000
G03 X39.407115 Y44.107456 Z-1.000000 I2.125000 J-3.680608
G03 X38.837723 Y41.982456 Z-1.000000 I3.680608 J-2.125000
G03 X39.407115 Y39.857456 Z-1.000000 I4.250000 J-0.000000
G03 X40.962723 Y38.301848 Z-1.000000 I3.680608 J2.125000
G03 X43.087723 Y37.732456 Z-1.000000 I2.125000 J3.680608
G03 X45.212723 Y38.301848 Z-1.000000 I0.000000 J4.250000
G03 X46.768331 Y39.857456 Z-1.000000 I-2.125000 J3.680608
G03 X47.337723 Y41.982456 Z-1.000000 I-3.680608 J2.125000
G01 X47.337723 Y41.982456 Z-1.000000
G00 Z5.000000
M05 (turn off laser)
(End cutting path id: path3778)


(Start cutting path id: path3776)
(Change tool to Laser cutter)
 
G00 Z5.000000
G00 X29.837723 Y23.982458
M03 S1000 (Turn laser on)
G01 Z-1.000000 F100.0(Penetrate)
G03 X29.335661 Y25.857893 Z-1.000000 I-3.750000 J0.001029 F400.000000
G03 X27.963020 Y27.230911 Z-1.000000 I-3.247938 J-1.874406
G03 X26.087723 Y27.733487 Z-1.000000 I-1.875297 J-3.247424
G03 X24.212426 Y27.230911 Z-1.000000 I-0.000000 J-3.750000
G03 X22.839785 Y25.857893 Z-1.000000 I1.875297 J-3.247424
G03 X22.337723 Y23.982458 Z-1.000000 I3.247938 J-1.874406
G03 X22.839785 Y22.107023 Z-1.000000 I3.750000 J-0.001029
G03 X24.212426 Y20.734005 Z-1.000000 I3.247938 J1.874406
G03 X26.087723 Y20.231429 Z-1.000000 I1.875297 J3.247424
G03 X27.963020 Y20.734005 Z-1.000000 I-0.000000 J3.750000
G03 X29.335661 Y22.107023 Z-1.000000 I-1.875297 J3.247424
G03 X29.837723 Y23.982458 Z-1.000000 I-3.247938 J1.874406
G01 X29.837723 Y23.982458 Z-1.000000
G00 Z5.000000
M05 (turn off laser)
(End cutting path id: path3776)


(Start cutting path id: path3774)
(Change tool to Laser cutter)
 
G00 Z5.000000
G00 X65.587722 Y20.979642
M03 S1000 (Turn laser on)
G01 Z-1.000000 F100.0(Penetrate)
G01 X62.260460 Y20.979642 Z-1.000000 F400.000000
G00 Z5.000000
M05 (turn off laser)
(End cutting path id: path3774)


(Start cutting path id: path3772)
(Change tool to Laser cutter)
 
G00 Z5.000000
G00 X65.587722 Y26.985260
M03 S1000 (Turn laser on)
G01 Z-1.000000 F100.0(Penetrate)
G01 X62.883649 Y26.985260 Z-1.000000 F400.000000
G00 Z5.000000
M05 (turn off laser)
(End cutting path id: path3772)


(Start cutting path id: path3770)
(Change tool to Laser cutter)
 
G00 Z5.000000
G00 X65.587722 Y20.979642
M03 S1000 (Turn laser on)
G01 Z-1.000000 F100.0(Penetrate)
G03 X67.089126 Y21.381942 Z-1.000000 I-0.000000 J3.002809 F400.000000
G03 X68.188231 Y22.481046 Z-1.000000 I-1.501405 J2.600509
G03 X68.590531 Y23.982451 Z-1.000000 I-2.600509 J1.501405
G03 X68.188231 Y25.483856 Z-1.000000 I-3.002809 J0.000000
G03 X67.089126 Y26.582960 Z-1.000000 I-2.600509 J-1.501405
G03 X65.587722 Y26.985260 Z-1.000000 I-1.501405 J-2.600509
G00 Z5.000000
M05 (turn off laser)
(End cutting path id: path3770)


(Start cutting path id: path3768)
(Change tool to Laser cutter)
 
G00 Z5.000000
G00 X40.587724 Y20.897967
M03 S1000 (Turn laser on)
G01 Z-1.000000 F100.0(Penetrate)
G01 X43.870389 Y20.897967 Z-1.000000 F400.000000
G00 Z5.000000
M05 (turn off laser)
(End cutting path id: path3768)


(Start cutting path id: path3766)
(Change tool to Laser cutter)
 
G00 Z5.000000
G00 X40.587724 Y27.066941
M03 S1000 (Turn laser on)
G01 Z-1.000000 F100.0(Penetrate)
G01 X43.270901 Y27.066941 Z-1.000000 F400.000000
G00 Z5.000000
M05 (turn off laser)
(End cutting path id: path3766)


(Start cutting path id: path3764)
(Change tool to Laser cutter)
 
G00 Z5.000000
G00 X40.587724 Y27.066941
M03 S1000 (Turn laser on)
G01 Z-1.000000 F100.0(Penetrate)
G03 X39.045480 Y26.653698 Z-1.000000 I0.000000 J-3.084487 F400.000000
G03 X37.916480 Y25.524697 Z-1.000000 I1.542244 J-2.671244
G03 X37.503237 Y23.982454 Z-1.000000 I2.671244 J-1.542244
G03 X37.916480 Y22.440210 Z-1.000000 I3.084487 J0.000000
G03 X39.045480 Y21.311210 Z-1.000000 I2.671244 J1.542244
G03 X40.587724 Y20.897967 Z-1.000000 I1.542244 J2.671244
G00 Z5.000000
M05 (turn off laser)
(End cutting path id: path3764)


(Start cutting path id: path3762)
(Change tool to Laser cutter)
 
G00 Z5.000000
G00 X63.087724 Y28.951903
M03 S1000 (Turn laser on)
G01 Z-1.000000 F100.0(Penetrate)
G01 X43.087722 Y28.951903 Z-1.000000 F400.000000
G01 X44.054931 Y18.998978 Z-1.000000
G01 X62.054932 Y18.998978 Z-1.000000
G01 X63.087724 Y28.951903 Z-1.000000
G01 X63.087724 Y28.951903 Z-1.000000
G00 Z5.000000
M05 (turn off laser)
(End cutting path id: path3762)


(Start cutting path id: path3760)
(Change tool to Laser cutter)
 
G00 Z5.000000
G00 X73.746955 Y13.482465
M03 S1000 (Turn laser on)
G01 Z-1.000000 F100.0(Penetrate)
G03 X73.532596 Y14.282466 Z-1.000000 I-1.600001 J-0.000000 F400.000000
G03 X72.946955 Y14.868107 Z-1.000000 I-1.385642 J-0.800001
G03 X72.146954 Y15.082466 Z-1.000000 I-0.800001 J-1.385642
G03 X71.346954 Y14.868107 Z-1.000000 I0.000000 J-1.600001
G03 X70.761313 Y14.282466 Z-1.000000 I0.800001 J-1.385642
G03 X70.546953 Y13.482465 Z-1.000000 I1.385642 J-0.800001
G03 X70.761313 Y12.682464 Z-1.000000 I1.600001 J-0.000000
G03 X71.346954 Y12.096823 Z-1.000000 I1.385642 J0.800001
G03 X72.146954 Y11.882464 Z-1.000000 I0.800001 J1.385642
G03 X72.946955 Y12.096823 Z-1.000000 I-0.000000 J1.600001
G03 X73.532596 Y12.682464 Z-1.000000 I-0.800001 J1.385642
G03 X73.746955 Y13.482465 Z-1.000000 I-1.385642 J0.800001
G01 X73.746955 Y13.482465 Z-1.000000
G00 Z5.000000
M05 (turn off laser)
(End cutting path id: path3760)


(Start cutting path id: path3758)
(Change tool to Laser cutter)
 
G00 Z5.000000
G00 X73.746955 Y49.482458
M03 S1000 (Turn laser on)
G01 Z-1.000000 F100.0(Penetrate)
G03 X73.532596 Y50.282458 Z-1.000000 I-1.600001 J0.000000 F400.000000
G03 X72.946955 Y50.868099 Z-1.000000 I-1.385642 J-0.800001
G03 X72.146954 Y51.082459 Z-1.000000 I-0.800001 J-1.385642
G03 X71.346954 Y50.868099 Z-1.000000 I0.000000 J-1.600001
G03 X70.761313 Y50.282458 Z-1.000000 I0.800001 J-1.385642
G03 X70.546953 Y49.482458 Z-1.000000 I1.385642 J-0.800001
G03 X70.761313 Y48.682457 Z-1.000000 I1.600001 J-0.000000
G03 X71.346954 Y48.096816 Z-1.000000 I1.385642 J0.800001
G03 X72.146954 Y47.882457 Z-1.000000 I0.800001 J1.385642
G03 X72.946955 Y48.096816 Z-1.000000 I0.000000 J1.600001
G03 X73.532596 Y48.682457 Z-1.000000 I-0.800001 J1.385642
G03 X73.746955 Y49.482458 Z-1.000000 I-1.385642 J0.800001
G01 X73.746955 Y49.482458 Z-1.000000
G00 Z5.000000
M05 (turn off laser)
(End cutting path id: path3758)


(Start cutting path id: path3756)
(Change tool to Laser cutter)
 
G00 Z5.000000
G00 X15.687723 Y49.482458
M03 S1000 (Turn laser on)
G01 Z-1.000000 F100.0(Penetrate)
G03 X15.473364 Y50.282458 Z-1.000000 I-1.600000 J0.000000 F400.000000
G03 X14.887723 Y50.868098 Z-1.000000 I-1.385641 J-0.800000
G03 X14.087723 Y51.082458 Z-1.000000 I-0.800000 J-1.385641
G03 X13.287723 Y50.868098 Z-1.000000 I-0.000000 J-1.600000
G03 X12.702082 Y50.282458 Z-1.000000 I0.800000 J-1.385641
G03 X12.487723 Y49.482458 Z-1.000000 I1.385641 J-0.800000
G03 X12.702082 Y48.682458 Z-1.000000 I1.600000 J-0.000000
G03 X13.287723 Y48.096817 Z-1.000000 I1.385641 J0.800000
G03 X14.087723 Y47.882458 Z-1.000000 I0.800000 J1.385641
G03 X14.887723 Y48.096817 Z-1.000000 I0.000000 J1.600000
G03 X15.473364 Y48.682458 Z-1.000000 I-0.800000 J1.385641
G03 X15.687723 Y49.482458 Z-1.000000 I-1.385641 J0.800000
G01 X15.687723 Y49.482458 Z-1.000000
G00 Z5.000000
M05 (turn off laser)
(End cutting path id: path3756)


(Start cutting path id: path3754)
(Change tool to Laser cutter)
 
G00 Z5.000000
G00 X15.687723 Y13.482465
M03 S1000 (Turn laser on)
G01 Z-1.000000 F100.0(Penetrate)
G03 X15.473364 Y14.282465 Z-1.000000 I-1.600000 J-0.000000 F400.000000
G03 X14.887723 Y14.868106 Z-1.000000 I-1.385641 J-0.800000
G03 X14.087723 Y15.082465 Z-1.000000 I-0.800000 J-1.385641
G03 X13.287723 Y14.868106 Z-1.000000 I-0.000000 J-1.600000
G03 X12.702082 Y14.282465 Z-1.000000 I0.800000 J-1.385641
G03 X12.487723 Y13.482465 Z-1.000000 I1.385641 J-0.800000
G03 X12.702082 Y12.682465 Z-1.000000 I1.600000 J0.000000
G03 X13.287723 Y12.096824 Z-1.000000 I1.385641 J0.800000
G03 X14.087723 Y11.882465 Z-1.000000 I0.800000 J1.385641
G03 X14.887723 Y12.096824 Z-1.000000 I-0.000000 J1.600000
G03 X15.473364 Y12.682465 Z-1.000000 I-0.800000 J1.385641
G03 X15.687723 Y13.482465 Z-1.000000 I-1.385641 J0.800000
G01 X15.687723 Y13.482465 Z-1.000000
G00 Z5.000000
M05 (turn off laser)
(End cutting path id: path3754)


(Start cutting path id: path3752)
(Change tool to Laser cutter)
 
G00 Z5.000000
G00 X74.087722 Y9.982458
M03 S1000 (Turn laser on)
G01 Z-1.000000 F100.0(Penetrate)
G01 X12.087723 Y9.982458 Z-1.000000 F400.000000
G02 X10.673511 Y10.568243 Z-1.000000 I-0.000000 J2.000000
G02 X10.087723 Y11.982454 Z-1.000000 I1.414212 J1.414215
G01 X10.087723 Y50.982458 Z-1.000000
G02 X10.673510 Y52.396670 Z-1.000000 I2.000000 J-0.000001
G02 X12.087723 Y52.982456 Z-1.000000 I1.414213 J-1.414214
G01 X74.087722 Y52.982456 Z-1.000000
G02 X74.853089 Y52.830216 Z-1.000000 I0.000002 J-2.000000
G02 X75.501936 Y52.396671 Z-1.000000 I-0.765365 J-1.847760
G02 X75.935482 Y51.747824 Z-1.000000 I-1.414213 J-1.414215
G02 X76.087723 Y50.982458 Z-1.000000 I-1.847759 J-0.765368
G01 X76.087723 Y11.982454 Z-1.000000
G02 X75.501935 Y10.568242 Z-1.000000 I-2.000000 J0.000004
G02 X74.087722 Y9.982458 Z-1.000000 I-1.414212 J1.414216
G01 X74.087722 Y9.982458 Z-1.000000
G00 Z5.000000
M05 (turn off laser)
(End cutting path id: path3752)


(Footer)
M5
G00 X0.0000 Y0.0000
M2
(Using default footer. To add your own footer create file "footer" in the output dir.)
(end)
%